X: 1
T: Galway Rambler, The
T: Finlay's Delight
M: 4/4
L: 1/8
K: D
DDAD BDAD|DFAF EDB,C|D3E FEFA|B2 AF EDB,C|
DDAD BDAD|DFAF EDB,C|D3E FEFA|B2 AF E2 Bc||
d3f e3f|defd edBc|d2 df e2 ef|dBAF E3A|
defd defd|defd (3efe de|fdef dBAB|dBAF EDB,C||
So, based on that setting, here's one way of bringing it back into G:
